images_breeze_svg/cmd/32/mailmergeprintdocuments.svg

<svg viewBox="0 0 32 32" xmlns="http://www.w3.org/2000/svg"><path d="m10 4-1 1-4 4-1 1v1 13h7v3h4v-1h-3v-12h6v-6h7v7h1v-3-1-4h-7v-3h-8zm1 1h7v2h-1l-1 1-4 4-1 1v1 9h-6v-12h6zm7 11v1 2h-1-1v1 5 1h1 2v1 1h5 1v-1-1h2 1v-1-5-1h-2v-2-1zm1 1h6v2h-6zm-2 3h10v5h-1v-1h-8v1h-1zm7 1v1h2v-1zm-4 5h4v1h-4z" fill="#4d4d4d"/></svg>

<?xml version="1.0" encoding="UTF-8" standalone="no"?>
<svg
   xmlns:dc="http://purl.org/dc/elements/1.1/"
   xmlns:cc="http://creativecommons.org/ns#"
   xmlns:rdf="http://www.w3.org/1999/02/22-rdf-syntax-ns#"
   xmlns:svg="http://www.w3.org/2000/svg"
   xmlns="http://www.w3.org/2000/svg"
   xmlns:sodipodi="http://sodipodi.sourceforge.net/DTD/sodipodi-0.dtd"
   xmlns:inkscape="http://www.inkscape.org/namespaces/inkscape"
   viewBox="0 0 32 32"
   version="1.1"
   id="svg6"
   sodipodi:docname="mailmergeprintdocuments.svg"
   inkscape:export-filename="/home/rizmut/Dokumen/Rizmut/Github/libreoffice-style-breeze/images_breeze/cmd/32/mailmergeprintdocuments.png"
   inkscape:export-xdpi="96"
   inkscape:export-ydpi="96"
   inkscape:version="0.92.4 (unknown)">
  <metadata
     id="metadata12">
    <rdf:RDF>
      <cc:Work
         rdf:about="">
        <dc:format>image/svg+xml</dc:format>
        <dc:type
           rdf:resource="http://purl.org/dc/dcmitype/StillImage" />
        <dc:title></dc:title>
      </cc:Work>
    </rdf:RDF>
  </metadata>
  <defs
     id="defs10" />
  <sodipodi:namedview
     pagecolor="#ffffff"
     bordercolor="#666666"
     borderopacity="1"
     objecttolerance="10"
     gridtolerance="10"
     guidetolerance="10"
     inkscape:pageopacity="0"
     inkscape:pageshadow="2"
     inkscape:window-width="1360"
     inkscape:window-height="714"
     id="namedview8"
     showgrid="true"
     inkscape:zoom="14.75"
     inkscape:cx="9.2158451"
     inkscape:cy="14.242035"
     inkscape:window-x="0"
     inkscape:window-y="28"
     inkscape:window-maximized="1"
     inkscape:current-layer="svg6">
    <inkscape:grid
       type="xygrid"
       id="grid822" />
  </sodipodi:namedview>
  <path
     style="fill:#4d4d4d"
     d="M 10 4 L 9 5 L 5 9 L 4 10 L 4 11 L 4 24 L 11 24 L 11 27 L 15 27 L 15 26 L 12 26 L 12 14 L 18 14 L 18 8 L 25 8 L 25 15 L 26 15 L 26 12 L 26 11 L 26 7 L 19 7 L 19 4 L 11 4 L 10 4 z M 11 5 L 18 5 L 18 7 L 17 7 L 16 8 L 12 12 L 11 13 L 11 14 L 11 23 L 5 23 L 5 11 L 11 11 L 11 5 z M 18 16 L 18 17 L 18 19 L 17 19 L 16 19 L 16 20 L 16 25 L 16 26 L 17 26 L 19 26 L 19 27 L 19 28 L 24 28 L 25 28 L 25 27 L 25 26 L 27 26 L 28 26 L 28 25 L 28 20 L 28 19 L 26 19 L 26 17 L 26 16 L 18 16 z M 19 17 L 25 17 L 25 19 L 19 19 L 19 17 z M 17 20 L 27 20 L 27 25 L 26 25 L 26 24 L 18 24 L 18 25 L 17 25 L 17 20 z M 24 21 L 24 22 L 26 22 L 26 21 L 24 21 z M 20 26 L 24 26 L 24 27 L 20 27 L 20 26 z "
     id="path4" />
</svg>
